X: 7445
T: Cluck Old Hen
R: barndance
M: 4/4
K: Gmajor
D2 G2 B3 c|dBcB A2 A2|D2 F2 A2 (AB)|cABA G2 G2|
D2 G2 (BAB)c|(dBd)c (ABA)F|(DE)FG (AB)AB|cA F2 (G2 G2)|
D2 G2 [G4B4]|[d4g4] A2 A2|D2 F2 A2 A2|BABA G4||
G2 g2 f2 g2|(ef)ge[E4c4]|[E2c2] g2 f2 g2|(ed)BA G3 (A|
B2) g2 f2 g2|(ef)ge[c4E4]|[c2E2] g2 b2 a2|gedB G4||

